Adwaita++/apps/scalable/fragments.svg

<svg viewBox="0 0 128 128" xmlns="http://www.w3.org/2000/svg" xmlns:xlink="http://www.w3.org/1999/xlink">
  <clipPath id="e">
    <path d="m64 175.307c-2.045 0-4.09.782-5.656 2.35l-52.688 52.686a7.952 7.952 0 0 0 -2.342 5.657h-.002v2h.002a7.952 7.952 0 0 0 2.342 5.656l52.688 52.688a7.981 7.981 0 0 0 11.312 0l52.688-52.688a7.952 7.952 0 0 0 2.342-5.656h.002v-2h-.002a7.95 7.95 0 0 0 -2.342-5.656l-52.688-52.688a7.972 7.972 0 0 0 -5.656-2.35z"/>
  </clipPath>
  <g transform="translate(0 -172)">
    <path d="m64 175.307c-2.045 0-4.09.782-5.656 2.35l-52.688 52.686a7.952 7.952 0 0 0 -2.342 5.657h-.002v2h.002a7.952 7.952 0 0 0 2.342 5.656l52.688 52.688a7.981 7.981 0 0 0 11.312 0l52.688-52.688a7.952 7.952 0 0 0 2.342-5.656h.002v-2h-.002a7.95 7.95 0 0 0 -2.342-5.656l-52.688-52.688a7.972 7.972 0 0 0 -5.656-2.35z" fill="#1c71d8"/>
    <g clip-path="url(#e)">
      <path d="m48 220 16-16v32l-16 16z" fill="#26a269"/>
      <path d="m16 82.001953 16 16v-2.001953l16-16-15.976562-16.023438-16.023438 16.023438z" fill="#813d9c" transform="translate(0 172)"/>
      <path d="m80 252-32 32v-32l31.892-32.242z" fill="#98c1f1"/>
      <path d="m96 32-16-16-16 16v32z" fill="#2ec27e" transform="translate(0 172)"/>
      <path d="m32.03125 31.966797-.015625-.017578-13.382813 13.416015z" transform="translate(0 172)"/>
      <path d="m32.03125 31.966797-13.398438 13.398437-13.0449214 13.076172c-.7115695.730096-1.2888133 1.570867-1.671875 2.496094-.3981191.961596-.6062686 2.001315-.6035156 3.0625h-.0019531v2c-.0025 1.06134.2070141 2.100901.6054687 3.0625s.9858498 1.845235 1.7382813 2.59375l10.3457031 10.345703v-2.001953l32-32z" fill="#613583" transform="translate(0 172)"/>
      <path d="m79.988281 15.986328-10.330078-10.330078c-.760846-.76425-1.65999-1.3581675-2.638672-1.7578125s-2.036903-.6050169-3.115234-.5917969c-1.044485.0128-2.06548.22977-3.009766.6289063-.944286.3991362-1.811862.9804381-2.548828 1.7207031l-26.345703 26.34375 16 16z" fill="#f5c211" transform="translate(0 172)"/>
      <path d="m112.01758 81.984375 10.32812-10.328125c.75208-.74868 1.33821-1.632156 1.73633-2.59375s.60823-2.001305.60547-3.0625h.00195v-2h-.00195c.003-1.061185-.20729-2.100904-.60547-3.0625-.39728-.959427-.98279-1.840293-1.73242-2.587891l-26.34961-26.349609-.066406 33.900391z" fill="#e01b24" transform="translate(0 172)"/>
      <path d="m64 236 32-32v32l-16 16z" fill="#ff7800"/>
      <path d="m64 204 16 16 16-16-16-16z" fill="#58ce98"/>
      <path d="m31.060547 32.941406-25.4023439 25.402344c-.0464501.046241-.062238.112901-.1074219.160156z" transform="translate(0 172)"/>
      <path d="m32 204 16 16 16-16z" fill="#e5a50a"/>
      <path d="m80 252 16.012 15.988-.012-31.988z" fill="#ffa348"/>
      <path d="m48 252 16-16-15.985-15.883z" fill="#3584e4"/>
      <path d="m96.013672 97.988281 15.986328-15.986328v-1.984375l-16-16.017578z" fill="#f66151" transform="translate(0 172)"/>
      <path d="m32 97.998047 16 16.000003v-33.99805l-16 16z" fill="#813d9c" transform="translate(0 172)"/>
      <path d="m64 236-16-16-16 16z" fill="#1a5fb4"/>
      <path d="m64 236-16 16-15.977-16.023z" fill="#3584e4"/>
    </g>
    <path d="m3.313 236v2h.001a7.952 7.952 0 0 0 2.342 5.656l52.688 52.688a7.981 7.981 0 0 0 11.312 0l52.688-52.688a7.952 7.952 0 0 0 2.342-5.656h.001v-2h-.001a7.952 7.952 0 0 1 -2.342 5.656l-52.688 52.688a7.981 7.981 0 0 1 -11.312 0l-52.688-52.688a7.952 7.952 0 0 1 -2.342-5.656h-.002z" opacity=".2"/>
  </g>
</svg>

<svg xmlns="http://www.w3.org/2000/svg" version="1.0" viewBox="0 0 128 128">
 <defs>
  <linearGradient id="a">
   <stop id="stop2" offset="0" stop-color="#d5d3cf"/>
   <stop id="stop4" offset="1" stop-color="#f6f5f4"/>
  </linearGradient>
  <linearGradient id="b">
   <stop id="stop7" offset="0" stop-color="#d5d3cf"/>
   <stop id="stop9" offset="1" stop-color="#949390"/>
  </linearGradient>
  <linearGradient id="c">
   <stop id="stop12" offset="0" stop-color="#9a9996"/>
   <stop id="stop14" offset="1" stop-color="#77767b"/>
  </linearGradient>
  <clipPath id="d" clipPathUnits="userSpaceOnUse">
   <rect fill="#4a86cf" stroke-width="6.517" width="84.026" height="84.026" x="27.31" y="222.42" rx="8" ry="8" transform="rotate(45)"/>
  </clipPath>
  <clipPath id="e" clipPathUnits="userSpaceOnUse">
   <path fill="#1c71d8" stroke-width="6.517" d="M64 175.307c-2.045 0-4.09.782-5.656 2.35L5.656 230.343A7.952 7.952 0 0 0 3.314 236h-.002v2h.002a7.952 7.952 0 0 0 2.342 5.656l52.688 52.688a7.981 7.981 0 0 0 11.312 0l52.688-52.688a7.952 7.952 0 0 0 2.342-5.656h.002v-2h-.002a7.95 7.95 0 0 0-2.342-5.656l-52.688-52.688a7.972 7.972 0 0 0-5.656-2.35z"/>
  </clipPath>
  <clipPath id="e-7" clipPathUnits="userSpaceOnUse">
   <path style="fill:#1c71d8" d="m 64,175.307 c -2.045,0 -4.09,0.782 -5.656,2.35 L 5.656,230.343 A 7.952,7.952 0 0 0 3.314,236 H 3.312 v 2 h 0.002 a 7.952,7.952 0 0 0 2.342,5.656 l 52.688,52.688 a 7.981,7.981 0 0 0 11.312,0 l 52.688,-52.688 A 7.952,7.952 0 0 0 124.686,238 h 0.002 v -2 h -0.002 a 7.95,7.95 0 0 0 -2.342,-5.656 L 69.656,177.656 A 7.972,7.972 0 0 0 64,175.306 Z"/>
  </clipPath>
 </defs>
 <g transform="translate(0 -172)">
  <path fill="#1c71d8" d="M64 175.307c-2.045 0-4.09.782-5.656 2.35L5.656 230.343A7.952 7.952 0 0 0 3.314 236h-.002v2h.002a7.952 7.952 0 0 0 2.342 5.656l52.688 52.688a7.981 7.981 0 0 0 11.312 0l52.688-52.688a7.952 7.952 0 0 0 2.342-5.656h.002v-2h-.002a7.95 7.95 0 0 0-2.342-5.656l-52.688-52.688a7.972 7.972 0 0 0-5.656-2.35z"/>
  <g clip-path="url(#e)">
   <path fill="#26a269" d="M48 220l16-16v32l-16 16z"/>
   <path style="fill:#813d9c" d="M 16 82.001953 L 32 98.001953 L 32 96 L 48 80 L 32.023438 63.976562 L 16 80 L 16 82.001953 z" transform="translate(0,172)"/>
   <path fill="#98c1f1" d="M80 252l-32 32v-32l31.892-32.242z"/>
   <path style="fill:#2ec27e" d="M 96 32 L 80 16 L 64 32 L 64 64 L 96 32 z" transform="translate(0,172)"/>
   <path d="M 32.03125 31.966797 L 32.015625 31.949219 L 18.632812 45.365234 L 32.03125 31.966797 z" transform="translate(0,172)"/>
   <path style="fill:#613583" d="M 32.03125 31.966797 L 18.632812 45.365234 L 5.5878906 58.441406 C 4.8763211 59.171502 4.2990773 60.012273 3.9160156 60.9375 C 3.5178965 61.899096 3.309747 62.938815 3.3125 64 L 3.3105469 64 L 3.3105469 66 C 3.3080469 67.06134 3.517561 68.100901 3.9160156 69.0625 C 4.3144702 70.024099 4.9018654 70.907735 5.6542969 71.65625 L 16 82.001953 L 16 80 L 48 48 L 32.03125 31.966797 z" transform="translate(0,172)"/>
   <path style="fill:#f5c211" d="M 79.988281 15.986328 L 69.658203 5.65625 C 68.897357 4.892 67.998213 4.2980825 67.019531 3.8984375 C 66.040849 3.4987925 64.982628 3.2934206 63.904297 3.3066406 C 62.859812 3.3194406 61.838817 3.5364106 60.894531 3.9355469 C 59.950245 4.3346831 59.082669 4.915985 58.345703 5.65625 L 32 32 L 48 48 L 79.988281 15.986328 z" transform="translate(0,172)"/>
   <path style="fill:#e01b24" d="M 112.01758 81.984375 L 122.3457 71.65625 C 123.09778 70.90757 123.68391 70.024094 124.08203 69.0625 C 124.48015 68.100906 124.69026 67.061195 124.6875 66 L 124.68945 66 L 124.68945 64 L 124.6875 64 C 124.6905 62.938815 124.48021 61.899096 124.08203 60.9375 C 123.68475 59.978073 123.09924 59.097207 122.34961 58.349609 L 96 32 L 95.933594 65.900391 L 112.01758 81.984375 z" transform="translate(0,172)"/>
   <path fill="#ff7800" d="M64 236l32-32v32l-16 16z"/>
   <path style="fill:#58ce98" d="M64 204l16 16 16-16-16-16z"/>
   <path d="M 31.060547 32.941406 L 5.6582031 58.34375 C 5.611753 58.389991 5.5959651 58.456651 5.5507812 58.503906 L 31.060547 32.941406 z" transform="translate(0,172)"/>
   <path fill="#e5a50a" d="M32 204l16 16 16-16z"/>
   <path fill="#ffa348" d="M80 252l16.012 15.988L96 236z"/>
   <path fill="#3584e4" d="M48 252l16-16-15.985-15.883z"/>
   <path style="fill:#f66151" d="M 96.013672 97.988281 L 112 82.001953 L 112 80.017578 L 96 64 L 96.013672 97.988281 z" transform="translate(0,172)"/>
   <path style="fill:#813d9c" d="M 32 97.998047 L 48 113.99805 L 48 80 L 32 96 L 32 97.998047 z" transform="translate(0,172)"/>
   <path fill="#1a5fb4" d="M64 236l-16-16-16 16z"/>
   <path fill="#3584e4" d="M64 236l-16 16-15.977-16.023z"/>
  </g>
  <path opacity=".2" d="M3.313 236v2h.001a7.952 7.952 0 0 0 2.342 5.656l52.688 52.688a7.981 7.981 0 0 0 11.312 0l52.688-52.688a7.952 7.952 0 0 0 2.342-5.656h.001v-2h-.001a7.952 7.952 0 0 1-2.342 5.656l-52.688 52.688a7.981 7.981 0 0 1-11.312 0L5.656 241.656A7.952 7.952 0 0 1 3.314 236h-.002z"/>
 </g>
</svg>
